Dominus_Dark_Funeral/scalable/apps/synaptic.svg

<?xml version="1.0" encoding="UTF-8" standalone="no"?><svg xmlns:dc="http://purl.org/dc/elements/1.1/" xmlns:cc="http://creativecommons.org/ns#" xmlns:rdf="http://www.w3.org/1999/02/22-rdf-syntax-ns#" xmlns="http://www.w3.org/2000/svg" xmlns:xlink="http://www.w3.org/1999/xlink" width="48" height="48" viewBox="0 0 12.7 12.7"><metadata><rdf:RDF><cc:Work><dc:format>image/svg+xml</dc:format><dc:type rdf:resource="http://purl.org/dc/dcmitype/StillImage"/><dc:title/></cc:Work></rdf:RDF></metadata><defs><linearGradient id="d"><stop offset="0" stop-color="#fff"/><stop offset="1" stop-color="#b7c8b7"/></linearGradient><linearGradient id="b"><stop offset="0" stop-color="#373e48"/><stop offset="1" stop-color="#939dac"/></linearGradient><linearGradient id="c"><stop offset="0"/><stop offset="1" stop-opacity="0"/></linearGradient><linearGradient id="a"><stop offset="0" stop-color="#6f7c91"/><stop offset="1" stop-color="#dbe2e3"/></linearGradient><radialGradient xlink:href="#d" id="g" cx="6.35" cy="290.65" fx="6.35" fy="290.65" r="5.35" gradientTransform="matrix(1.40307 0 0 1.17076 -2.56 -333.93)" gradientUnits="userSpaceOnUse"/><linearGradient gradientTransform="matrix(.26458 0 0 .26458 -2.12 .05)" xlink:href="#e" id="h" x1="32" y1="4.17" x2="32" y2="20.6" gradientUnits="userSpaceOnUse"/><linearGradient id="e"><stop offset="0" stop-color="#fff"/><stop offset="1" stop-color="#fff" stop-opacity=".07"/></linearGradient><linearGradient id="f"><stop offset="0" stop-color="#fff"/><stop offset=".52" stop-color="#fff"/><stop offset="1" stop-color="#ccc"/></linearGradient></defs><path fill="url(#g)" d="M6.35.1C4.81.1 3.57.39 2.66.97A3.67 3.67 0 0 0 1 4.22c0 1.91 1.54 4.47 2.01 5.2.54.85 1.13 1.61 1.65 2.16.68.7 1.21 1.03 1.69 1.03s1.01-.33 1.69-1.03a15.2 15.2 0 0 0 1.65-2.15c.47-.74 2-3.3 2-5.21 0-1.42-.57-2.54-1.65-3.25A6.75 6.75 0 0 0 6.35.09z"/><path opacity=".2" d="M9.75.8a3.83 3.83 0 0 1 1.63 3.32c0 2-1.6 4.66-2.09 5.43-.56.87-1.17 1.67-1.72 2.24-.31.33-.6.57-.86.75a3.5 3.5 0 0 0 1.32-.97 15.2 15.2 0 0 0 1.65-2.15c.47-.74 2-3.3 2-5.21A3.67 3.67 0 0 0 9.76.81zM2.94.81l-.28.16A3.67 3.67 0 0 0 1 4.22c0 1.91 1.54 4.47 2.01 5.2.54.85 1.13 1.61 1.65 2.16.5.53.93.84 1.32.97a5.26 5.26 0 0 1-.86-.75A15.02 15.02 0 0 1 3.4 9.56c-.5-.77-2.1-3.44-2.1-5.43 0-1.44.57-2.58 1.64-3.32z"/><path d="M9.2 2.43a4.01 4.01 0 0 0-2.85-1.18 4.02 4.02 0 0 0-2.86 1.18A4.01 4.01 0 0 0 2.31 5.3c0 1.08.42 2.1 1.18 2.86a4.01 4.01 0 0 0 2.86 1.18 4.02 4.02 0 0 0 2.86-1.18 4.01 4.01 0 0 0 1.18-2.86 4.02 4.02 0 0 0-1.18-2.86z" fill="#fff"/><path d="M6.35 2.03c.64 0 1.24.17 1.75.47L6.35 3.78 4.6 2.5a3.5 3.5 0 0 1 1.75-.47zm1.23 2.65L6.8 4.1l1.27-.92zm.28.85l1.27.92H7.56zm-2.74-.85l-.49-1.5 1.27.93zm.02 1.77H3.57l1.27-.92zm1.21-2.02l1.06.77-.4 1.25H5.69L5.3 5.2zM2.84 5.55A3.5 3.5 0 0 1 4 2.94L4.67 5 2.9 6.28a3.48 3.48 0 0 1-.07-.73zm.3 1.43h2.17l.67 2.06a3.53 3.53 0 0 1-2.84-2.06zm2.73 0h.96l-.48 1.49zm.85 2.06l.67-2.06h2.17a3.52 3.52 0 0 1-2.84 2.06zM8.03 5l.67-2.06A3.5 3.5 0 0 1 9.8 6.28z" opacity=".45" fill="#1c241f"/><path d="M6.35 1.78c.64 0 1.24.17 1.75.47L6.35 3.52 4.6 2.25a3.5 3.5 0 0 1 1.75-.47zm1.23 2.64l-.78-.57 1.27-.92zm.28.85l1.27.93H7.56zm-2.74-.85l-.49-1.5 1.27.93zm.02 1.78H3.57l1.27-.93zm1.21-2.02l1.06.77-.4 1.25H5.69l-.4-1.25zM2.84 5.29c0-1.03.45-1.96 1.16-2.6l.67 2.06L2.9 6.02a3.5 3.5 0 0 1-.07-.73zm.3 1.43h2.17l.67 2.07a3.52 3.52 0 0 1-2.84-2.07zm2.73 0h.96l-.48 1.5zm.85 2.07l.67-2.07h2.17A3.52 3.52 0 0 1 6.72 8.8zm1.31-4.04l.67-2.07A3.5 3.5 0 0 1 9.8 6.02z" fill="#c83737"/><path d="M10.13 4.22c-.04-.14-.07-.28-.12-.41a4.04 4.04 0 0 0-.86-1.31 3.94 4.01 0 0 0-.3-.27 3.94 4.01 0 0 0-.31-.24 3.94 4.01 0 0 0-.34-.2 3.94 4.01 0 0 0-.36-.18 3.94 4.01 0 0 0-.37-.13 3.94 4.01 0 0 0-.38-.1 3.94 4.01 0 0 0-.4-.05 3.94 4.01 0 0 0-.35-.01 3.93 3.93 0 0 0-2.8 1.18 3.94 4.01 0 0 0-.27.3 3.94 4.01 0 0 0-.23.32 3.94 4.01 0 0 0-.2.34 3.94 4.01 0 0 0-.17.37 3.94 4.01 0 0 0-.13.37 4.15 2.18 0 0 0 3.8 1.3 4.15 2.18 0 0 0 3.79-1.28z" opacity=".51" fill="url(#h)"/></svg>

<?xml version="1.0" encoding="UTF-8" standalone="no"?>
<svg
   xmlns:dc="http://purl.org/dc/elements/1.1/"
   xmlns:cc="http://creativecommons.org/ns#"
   xmlns:rdf="http://www.w3.org/1999/02/22-rdf-syntax-ns#"
   xmlns:svg="http://www.w3.org/2000/svg"
   xmlns="http://www.w3.org/2000/svg"
   xmlns:xlink="http://www.w3.org/1999/xlink"
   xmlns:sodipodi="http://sodipodi.sourceforge.net/DTD/sodipodi-0.dtd"
   xmlns:inkscape="http://www.inkscape.org/namespaces/inkscape"
   width="48"
   height="48"
   viewBox="0 0 12.7 12.7"
   version="1.1"
   id="svg52"
   sodipodi:docname="synaptic.svg"
   inkscape:version="0.92.4 (5da689c313, 2019-01-14)">
  <sodipodi:namedview
     pagecolor="#ffffff"
     bordercolor="#666666"
     borderopacity="1"
     objecttolerance="10"
     gridtolerance="10"
     guidetolerance="10"
     inkscape:pageopacity="0"
     inkscape:pageshadow="2"
     inkscape:window-width="1112"
     inkscape:window-height="480"
     id="namedview54"
     showgrid="false"
     inkscape:zoom="4.9166667"
     inkscape:cx="2.1355932"
     inkscape:cy="24"
     inkscape:window-x="0"
     inkscape:window-y="25"
     inkscape:window-maximized="0"
     inkscape:current-layer="svg52" />
  <metadata
     id="metadata2">
    <rdf:RDF>
      <cc:Work>
        <dc:format>image/svg+xml</dc:format>
        <dc:type
           rdf:resource="http://purl.org/dc/dcmitype/StillImage" />
        <dc:title></dc:title>
      </cc:Work>
    </rdf:RDF>
  </metadata>
  <defs
     id="defs38">
    <linearGradient
       id="d">
      <stop
         offset="0"
         stop-color="#fff"
         id="stop4" />
      <stop
         offset="1"
         stop-color="#b7c8b7"
         id="stop6" />
    </linearGradient>
    <linearGradient
       id="b">
      <stop
         offset="0"
         stop-color="#373e48"
         id="stop9" />
      <stop
         offset="1"
         stop-color="#939dac"
         id="stop11" />
    </linearGradient>
    <linearGradient
       id="c">
      <stop
         offset="0"
         id="stop14" />
      <stop
         offset="1"
         stop-opacity="0"
         id="stop16" />
    </linearGradient>
    <linearGradient
       id="a">
      <stop
         offset="0"
         stop-color="#6f7c91"
         id="stop19" />
      <stop
         offset="1"
         stop-color="#dbe2e3"
         id="stop21" />
    </linearGradient>
    <radialGradient
       xlink:href="#d"
       id="g"
       cx="6.35"
       cy="290.65"
       fx="6.35"
       fy="290.65"
       r="5.35"
       gradientTransform="matrix(1.40307,0,0,1.17076,-2.56,-333.93)"
       gradientUnits="userSpaceOnUse" />
    <linearGradient
       gradientTransform="matrix(0.26458,0,0,0.26458,-2.12,0.05)"
       xlink:href="#e"
       id="h"
       x1="32"
       y1="4.17"
       x2="32"
       y2="20.6"
       gradientUnits="userSpaceOnUse" />
    <linearGradient
       id="e">
      <stop
         offset="0"
         stop-color="#fff"
         id="stop26" />
      <stop
         offset="1"
         stop-color="#fff"
         stop-opacity=".07"
         id="stop28" />
    </linearGradient>
    <linearGradient
       id="f">
      <stop
         offset="0"
         stop-color="#fff"
         id="stop31" />
      <stop
         offset=".52"
         stop-color="#fff"
         id="stop33" />
      <stop
         offset="1"
         stop-color="#ccc"
         id="stop35" />
    </linearGradient>
  </defs>
  <path
     d="M 6.35,0.1 C 4.81,0.1 3.57,0.39 2.66,0.97 A 3.67,3.67 0 0 0 1,4.22 c 0,1.91 1.54,4.47 2.01,5.2 0.54,0.85 1.13,1.61 1.65,2.16 0.68,0.7 1.21,1.03 1.69,1.03 0.48,0 1.01,-0.33 1.69,-1.03 A 15.2,15.2 0 0 0 9.69,9.43 c 0.47,-0.74 2,-3.3 2,-5.21 0,-1.42 -0.57,-2.54 -1.65,-3.25 A 6.75,6.75 0 0 0 6.35,0.09 Z"
     id="path40"
     style="fill:url(#g)"
     inkscape:connector-curvature="0" />
  <path
     d="m 9.75,0.8 a 3.83,3.83 0 0 1 1.63,3.32 c 0,2 -1.6,4.66 -2.09,5.43 -0.56,0.87 -1.17,1.67 -1.72,2.24 -0.31,0.33 -0.6,0.57 -0.86,0.75 A 3.5,3.5 0 0 0 8.03,11.57 15.2,15.2 0 0 0 9.68,9.42 c 0.47,-0.74 2,-3.3 2,-5.21 A 3.67,3.67 0 0 0 9.76,0.81 Z M 2.94,0.81 2.66,0.97 A 3.67,3.67 0 0 0 1,4.22 c 0,1.91 1.54,4.47 2.01,5.2 0.54,0.85 1.13,1.61 1.65,2.16 0.5,0.53 0.93,0.84 1.32,0.97 A 5.26,5.26 0 0 1 5.12,11.8 15.02,15.02 0 0 1 3.4,9.56 C 2.9,8.79 1.3,6.12 1.3,4.13 1.3,2.69 1.87,1.55 2.94,0.81 Z"
     id="path42"
     inkscape:connector-curvature="0"
     style="opacity:0.2" />
  <path
     d="M 9.2,2.43 A 4.01,4.01 0 0 0 6.35,1.25 4.02,4.02 0 0 0 3.49,2.43 4.01,4.01 0 0 0 2.31,5.3 c 0,1.08 0.42,2.1 1.18,2.86 A 4.01,4.01 0 0 0 6.35,9.34 4.02,4.02 0 0 0 9.21,8.16 4.01,4.01 0 0 0 10.39,5.3 4.02,4.02 0 0 0 9.21,2.44 Z"
     id="path44"
     inkscape:connector-curvature="0"
     style="fill:#ffffff" />
  <path
     d="M 6.35,2.03 C 6.99,2.03 7.59,2.2 8.1,2.5 L 6.35,3.78 4.6,2.5 A 3.5,3.5 0 0 1 6.35,2.03 Z M 7.58,4.68 6.8,4.1 8.07,3.18 Z M 7.86,5.53 9.13,6.45 H 7.56 Z M 5.12,4.68 4.63,3.18 5.9,4.11 Z M 5.14,6.45 H 3.57 L 4.84,5.53 Z M 6.35,4.43 7.41,5.2 7.01,6.45 H 5.69 L 5.3,5.2 Z M 2.84,5.55 A 3.5,3.5 0 0 1 4,2.94 L 4.67,5 2.9,6.28 A 3.48,3.48 0 0 1 2.83,5.55 Z m 0.3,1.43 H 5.31 L 5.98,9.04 A 3.53,3.53 0 0 1 3.14,6.98 Z m 2.73,0 H 6.83 L 6.35,8.47 Z M 6.72,9.04 7.39,6.98 H 9.56 A 3.52,3.52 0 0 1 6.72,9.04 Z M 8.03,5 8.7,2.94 a 3.5,3.5 0 0 1 1.1,3.34 z"
     id="path46"
     inkscape:connector-curvature="0"
     style="opacity:0.45;fill:#1c241f" />
  <path
     d="m 6.35,1.78 c 0.64,0 1.24,0.17 1.75,0.47 L 6.35,3.52 4.6,2.25 A 3.5,3.5 0 0 1 6.35,1.78 Z M 7.58,4.42 6.8,3.85 8.07,2.93 Z M 7.86,5.27 9.13,6.2 H 7.56 Z M 5.12,4.42 4.63,2.92 5.9,3.85 Z M 5.14,6.2 H 3.57 L 4.84,5.27 Z M 6.35,4.18 7.41,4.95 7.01,6.2 H 5.69 L 5.29,4.95 Z M 2.84,5.29 C 2.84,4.26 3.29,3.33 4,2.69 L 4.67,4.75 2.9,6.02 A 3.5,3.5 0 0 1 2.83,5.29 Z m 0.3,1.43 H 5.31 L 5.98,8.79 A 3.52,3.52 0 0 1 3.14,6.72 Z m 2.73,0 H 6.83 L 6.35,8.22 Z M 6.72,8.79 7.39,6.72 H 9.56 A 3.52,3.52 0 0 1 6.72,8.8 Z M 8.03,4.75 8.7,2.68 a 3.5,3.5 0 0 1 1.1,3.34 z"
     id="path48"
     inkscape:connector-curvature="0"
     style="fill:#c83737" />
  <path
     d="M 10.13,4.22 C 10.09,4.08 10.06,3.94 10.01,3.81 A 4.04,4.04 0 0 0 9.15,2.5 3.94,4.01 0 0 0 8.85,2.23 3.94,4.01 0 0 0 8.54,1.99 3.94,4.01 0 0 0 8.2,1.79 3.94,4.01 0 0 0 7.84,1.61 3.94,4.01 0 0 0 7.47,1.48 3.94,4.01 0 0 0 7.09,1.38 3.94,4.01 0 0 0 6.69,1.33 3.94,4.01 0 0 0 6.34,1.32 3.93,3.93 0 0 0 3.54,2.5 3.94,4.01 0 0 0 3.27,2.8 3.94,4.01 0 0 0 3.04,3.12 3.94,4.01 0 0 0 2.84,3.46 3.94,4.01 0 0 0 2.67,3.83 3.94,4.01 0 0 0 2.54,4.2 4.15,2.18 0 0 0 6.34,5.5 4.15,2.18 0 0 0 10.13,4.22 Z"
     id="path50"
     style="opacity:0.51000001;fill:url(#h)"
     inkscape:connector-curvature="0" />
</svg>
